svg/pail_remove_outline.svg

<svg xmlns="http://www.w3.org/2000/svg" viewBox="0 0 24 24"><path d="M4 6H3V4h18v2h-1l-1.4 7c-.77.07-1.49.26-2.15.58L17.96 6H6.04l.46 2.22-1.85 1.05zm8.86 2a.976.976 0 0 0-1.36-.37l-8.23 4.75a.998.998 0 1 0 1 1.73l8.23-4.75c.47-.27.64-.89.36-1.36M13 19H8.64l-.91-4.57L5.9 15.5 7 21h6.35c-.22-.63-.35-1.3-.35-2m8.12-3.54L19 17.59l-2.12-2.13-1.42 1.42L17.58 19l-2.12 2.12 1.41 1.42L19 20.41l2.12 2.13 1.41-1.42L20.41 19l2.12-2.12z"/></svg>

<?xml version="1.0" encoding="UTF-8"?><!DOCTYPE svg PUBLIC "-//W3C//DTD SVG 1.1//EN" "http://www.w3.org/Graphics/SVG/1.1/DTD/svg11.dtd"><svg xmlns="http://www.w3.org/2000/svg" xmlns:xlink="http://www.w3.org/1999/xlink" version="1.1" id="mdi-pail-remove-outline" width="24" height="24" viewBox="0 0 24 24"><path d="M4 6H3V4H21V6H20L18.6 13C17.83 13.07 17.11 13.26 16.45 13.58L17.96 6H6.04L6.5 8.22L4.65 9.27L4 6M12.86 8C12.58 7.5 11.97 7.35 11.5 7.63L3.27 12.38C2.79 12.66 2.62 13.27 2.9 13.75C3.18 14.23 3.79 14.39 4.27 14.11L12.5 9.36C12.97 9.09 13.14 8.47 12.86 8M13 19H8.64L7.73 14.43L5.9 15.5L7 21H13.35C13.13 20.37 13 19.7 13 19M21.12 15.46L19 17.59L16.88 15.46L15.46 16.88L17.58 19L15.46 21.12L16.87 22.54L19 20.41L21.12 22.54L22.53 21.12L20.41 19L22.53 16.88L21.12 15.46Z" /></svg>
